Reedweeks/img/btn-pre.svg

<svg width="14" height="16" viewBox="0 0 14 16" fill="none" xmlns="http://www.w3.org/2000/svg">
<path opacity="0.6" d="M0.499973 9.508C0.576469 9.58533 0.865306 9.916 1.13436 10.188C2.71176 11.8987 6.82671 14.6987 8.98047 15.5533C9.30756 15.6907 10.1345 15.9813 10.5763 16C10.9997 16 11.4033 15.904 11.7884 15.7093C12.2685 15.4373 12.6536 15.0093 12.8646 14.504C13.0005 14.1533 13.2115 13.104 13.2115 13.0853C13.4225 11.9373 13.5386 10.072 13.5386 8.01067C13.5386 6.04667 13.4225 4.25733 13.2497 3.092C13.23 3.07333 13.0189 1.76933 12.7881 1.32267C12.3648 0.506667 11.5378 0 10.6528 0H10.5763C9.99998 0.02 8.78791 0.526667 8.78791 0.545333C6.75022 1.40133 2.73023 4.064 1.11458 5.83333C1.11458 5.83333 0.659559 6.288 0.461724 6.572C0.153103 6.98 0.000111103 7.48533 0.000111103 7.99067C0.000111103 8.55467 0.172887 9.08 0.499973 9.508" fill="#371A45"/>
</svg>

<svg width="14" height="16" fill="none" xmlns="http://www.w3.org/2000/svg"><path opacity=".6" d="M.5 9.508c.076.077.365.408.634.68 1.578 1.71 5.693 4.51 7.846 5.365.328.138 1.154.428 1.596.447a2.65 2.65 0 0 0 1.212-.29c.48-.273.866-.7 1.077-1.206.136-.35.346-1.4.346-1.419.211-1.148.328-3.013.328-5.074 0-1.964-.117-3.754-.29-4.919-.019-.019-.23-1.323-.46-1.77A2.42 2.42 0 0 0 10.652 0h-.077C10 .02 8.788.527 8.788.545 6.75 1.401 2.73 4.064 1.115 5.833c0 0-.455.455-.653.739A2.353 2.353 0 0 0 0 7.991c0 .564.173 1.089.5 1.517" fill="#371A45"/></svg>
